assets/svg/explore.svg

<svg width="25" height="27" viewBox="0 0 25 27" fill="none" xmlns="http://www.w3.org/2000/svg">
<path d="M19.16 6.97004L21.05 4.85004V1.75004C21.05 1.32004 20.55 1.04004 20.13 1.04004H17.81C17.38 1.04004 16.86 1.32004 16.86 1.75004V3.27004H14.64V1.75004C14.64 1.32004 14.36 1.04004 13.94 1.04004H10.84C10.41 1.04004 10.2 1.32004 10.2 1.75004V3.27004H7.73004V1.75004C7.73004 1.32004 7.39004 1.04004 6.97004 1.04004H4.65004C4.22004 1.04004 3.79004 1.32004 3.79004 1.75004V4.85004L5.62004 6.97004H19.18H19.16Z" fill="#141227"/>
<path d="M3.08004 21.29C2.65004 21.29 2.29004 21.47 2.29004 21.89V24.99C2.29004 25.42 2.66004 25.73 3.08004 25.73H21.68C22.11 25.73 22.54 25.42 22.54 24.99V21.89C22.54 21.46 22.11 21.29 21.68 21.29H3.08004Z" fill="#141227"/>
<path d="M18.58 8.20996H6.17997L4.71997 20.56H20.03L18.57 8.20996H18.58ZM13.89 14.88H10.93V12.61C10.93 11.81 11.61 11.06 12.41 11.06C13.21 11.06 13.89 11.81 13.89 12.61V14.88Z" fill="#141227"/>
</svg>

<?xml version="1.0" encoding="UTF-8"?>
<svg id="Calque_2" data-name="Calque 2" xmlns="http://www.w3.org/2000/svg" viewBox="0 0 24.82 26.79">
  <defs>
    <style>
      .cls-1 {
        fill: #141227;
      }
    </style>
  </defs>
  <path class="cls-1" d="m19.16,6.97l1.89-2.12V1.75c0-.43-.5-.71-.92-.71h-2.32c-.43,0-.95.28-.95.71v1.52h-2.22v-1.52c0-.43-.28-.71-.7-.71h-3.1c-.43,0-.64.28-.64.71v1.52h-2.47v-1.52c0-.43-.34-.71-.76-.71h-2.32c-.43,0-.86.28-.86.71v3.1l1.83,2.12h13.56Z"/>
  <path class="cls-1" d="m3.08,21.29c-.43,0-.79.18-.79.6v3.1c0,.43.37.74.79.74h18.6c.43,0,.86-.31.86-.74v-3.1c0-.43-.43-.6-.86-.6H3.08Z"/>
  <path class="cls-1" d="m18.58,8.21H6.18l-1.46,12.35h15.31l-1.46-12.35Zm-4.69,6.67h-2.96v-2.27c0-.8.68-1.55,1.48-1.55s1.48.75,1.48,1.55v2.27Z"/>
</svg>
